static/assets/images/exchanges/sanctum.svg

<svg width="341" height="256" viewBox="0 0 341 256" fill="none" xmlns="http://www.w3.org/2000/svg">
<path fill-rule="evenodd" clip-rule="evenodd" d="M102.633 255.999C102.578 255.999 102.525 255.999 102.472 255.999C45.8779 255.999 0 210.153 0 153.599C0 104.573 34.4765 63.5939 80.5244 53.553C103.762 21.1287 141.777 0 184.732 0C250.94 0 305.416 50.1988 312.126 114.587C329.769 129.248 341 151.349 341 176.071C341 220.215 305.19 256 261.016 256C260.87 256 260.725 256 260.579 255.999H185.284C185.099 256 184.915 256 184.732 256C184.548 256 184.364 256 184.18 255.999H102.633ZM157.832 103.686C169.977 103.686 179.824 93.8462 179.824 81.7089C179.824 69.5716 169.977 59.7322 157.832 59.7322C145.686 59.7322 135.841 69.5716 135.841 81.7089C135.841 93.8462 145.686 103.686 157.832 103.686ZM245.791 103.686C257.935 103.686 267.782 93.8462 267.782 81.7089C267.782 69.5716 257.935 59.7322 245.791 59.7322C233.645 59.7322 223.799 69.5716 223.799 81.7089C223.799 93.8462 233.645 103.686 245.791 103.686ZM241.859 123.585C250.208 122.411 257.254 121.42 261.498 121.42C271.906 121.42 280.347 129.854 280.347 140.256C280.347 183.6 245.185 218.738 201.811 218.738C158.438 218.738 123.276 183.6 123.276 140.256C123.276 129.854 131.715 121.42 142.125 121.42C146.367 121.42 153.414 122.411 161.764 123.585C173.899 125.292 188.785 127.385 201.811 127.385C214.837 127.385 229.723 125.292 241.859 123.585ZM201.808 203.041C219.02 203.041 234.616 196.124 245.962 184.92C251.011 179.933 249.352 171.406 242.836 168.595C231.829 163.848 217.489 160.975 201.806 160.975C186.122 160.975 171.781 163.848 160.774 168.595C154.258 171.406 152.605 179.936 157.654 184.92C169.003 196.124 184.596 203.041 201.808 203.041Z" fill="white"/>
</svg>

<svg xmlns="http://www.w3.org/2000/svg" fill="none" viewBox="0 0 341 256"><path fill="#fff" fill-rule="evenodd" d="M102.633 255.999h-.161C45.878 255.999 0 210.153 0 153.599c0-49.026 34.477-90.005 80.524-100.046C103.762 21.129 141.777 0 184.732 0c66.208 0 120.684 50.199 127.394 114.587C329.769 129.248 341 151.349 341 176.071 341 220.215 305.19 256 261.016 256l-.437-.001h-75.295l-.552.001-.552-.001zm55.199-152.313c12.145 0 21.992-9.84 21.992-21.977s-9.847-21.977-21.992-21.977-21.991 9.84-21.991 21.977 9.845 21.977 21.991 21.977m87.959 0c12.144 0 21.991-9.84 21.991-21.977s-9.847-21.977-21.991-21.977c-12.146 0-21.992 9.84-21.992 21.977s9.846 21.977 21.992 21.977m-3.932 19.899c8.349-1.174 15.395-2.165 19.639-2.165 10.408 0 18.849 8.434 18.849 18.836 0 43.344-35.162 78.482-78.536 78.482-43.373 0-78.535-35.138-78.535-78.482 0-10.402 8.439-18.836 18.849-18.836 4.242 0 11.289.991 19.639 2.165 12.135 1.707 27.021 3.8 40.047 3.8s27.912-2.093 40.048-3.8m-40.051 79.456c17.212 0 32.808-6.917 44.154-18.121 5.049-4.987 3.39-13.514-3.126-16.325-11.007-4.747-25.347-7.62-41.03-7.62s-30.025 2.873-41.032 7.62c-6.516 2.811-8.169 11.341-3.12 16.325 11.349 11.204 26.942 18.121 44.154 18.121" clip-rule="evenodd"/></svg>
